assets/symbols/mulberry/four.svg

<svg height="850.394" viewBox="0 0 850.394 850.394" width="850.394" xmlns="http://www.w3.org/2000/svg"><path d="m610.389 502.551v87.813h-68.643v105.526h-102.368v-105.526h-225.767v-87.459l239.313-333.515h88.822v333.161zm-171.011 0v-179.259l-126.691 179.259z" fill="#50264b"/><path d="m0 0h850.394v850.394h-850.394z" fill="none"/></svg>

<svg xmlns="http://www.w3.org/2000/svg" width="850.394" height="850.394" viewBox="0 0 850.394 850.394" overflow="visible"><path d="M610.389 502.551v87.813h-68.643V695.89H439.378V590.364H213.611v-87.459L452.924 169.39h88.822v333.161h68.643zm-171.011 0V323.292L312.687 502.551h126.691z" fill="#50264b"/><path fill="none" d="M0 0h850.394v850.394H0z"/></svg>
